X: 9
T: Toss The Feathers
R: reel
M: 4/4
L: 1/8
K: Dmix
D2 D2 AD D2|ABcA GE E2|D2 D2 AD D2|defd cAGE|
D2 D2 AD D2|ABcA GE E2|cABG A2 (3ABc|1d2 ed cAGE:|2d2 ed cAGc||
|:Ad d2 Ad d2|Ad d2 ed^cd|eaag a3g|eaag ed (3B^cd|
efge afge|f3e dcAB|cABG A2 (3AB^c|1d2 ed cAGc:|2d2 ed cAGE||


Tune 138	Setting 22298

